public/illustrations/pin.svg

<svg width="357" height="292" viewBox="0 0 357 292" fill="none" xmlns="http://www.w3.org/2000/svg">
<path d="M223.644 104.61C233.13 104.751 242.617 105.459 251.82 105.035C269.801 104.185 284.101 111.264 295.428 124.715C298.119 128.255 299.818 132.502 300.384 137.033C301.092 141.705 302.791 146.095 305.198 150.059C307.746 154.023 311.003 157.422 314.967 159.97C324.454 166.483 334.223 172.713 343.851 179.226C346.966 181.491 350.081 183.898 352.912 186.447C357.868 190.977 357.443 195.508 351.78 198.906C349.373 200.322 346.824 201.596 344.134 202.446C334.506 205.561 325.303 209.384 317.091 215.33C303.074 225.524 287.075 230.905 270.651 235.294C254.793 239.541 239.502 244.638 225.201 253.134C215.29 258.939 206.654 266.443 198.158 274.23C188.955 282.725 178.478 289.238 165.877 291.22C156.674 292.494 147.329 291.503 138.55 288.105C125.383 283.291 112.357 278.336 99.4724 272.814C88.287 268.142 76.8187 264.744 64.9254 262.337C58.8372 260.921 52.749 259.08 46.944 256.815C44.6786 256.107 42.6964 254.974 40.9974 253.417C33.0685 246.054 25.2811 238.55 17.777 230.905C13.3878 226.515 9.56489 221.702 5.3173 217.312C-2.0452 209.667 -1.76189 202.304 6.16695 195.367C11.1225 190.977 16.9274 187.862 23.7236 188.57C44.2536 190.411 63.0848 184.04 81.9158 177.385C88.9951 174.837 95.7912 172.005 102.729 169.173C105.985 167.899 107.26 165.775 105.985 162.235C103.437 155.015 106.977 150.342 112.357 146.095C119.295 140.714 119.153 140.573 114.906 133.069C109.242 123.016 113.773 111.264 125.1 108.433C131.896 106.734 138.975 105.601 146.055 105.318C167.576 104.61 189.238 104.327 210.76 103.902C212.6 103.902 213.45 103.619 213.733 101.495C214.866 88.7523 215.998 75.868 217.273 63.1252C217.556 60.7183 216.14 60.4351 214.582 59.8688C201.698 55.0549 194.335 43.728 195.043 29.8525C195.61 16.4019 204.671 4.50867 217.414 1.1106C229.166 -1.8627 239.502 1.1106 247.289 10.3137C255.643 20.2247 256.634 31.5516 251.537 43.1617C249.696 47.5508 246.864 51.3736 243.324 54.4885C239.643 57.4618 235.396 59.5856 230.723 60.7183C228.033 61.4262 227.467 62.4173 227.184 65.1075C226.193 77.2839 224.918 89.3186 223.644 101.495V104.893V104.61ZM343.285 191.685C341.727 190.411 340.878 189.562 339.886 188.854C329.975 182.199 320.064 175.545 310.153 168.89C299.393 161.669 292.455 152.041 290.473 138.874C290.19 136.042 289.198 133.352 287.499 131.087C282.119 124.715 276.031 118.627 267.677 117.353C257.766 115.795 247.855 115.654 237.803 115.087C232.847 114.804 227.891 115.087 222.653 115.087C222.37 116.786 222.086 118.202 221.945 119.76C221.378 126.131 220.812 132.502 220.246 138.874C219.821 143.121 217.556 145.387 214.299 144.962C211.043 144.537 209.627 141.705 210.052 137.599C210.476 134.06 210.76 130.52 211.184 126.839C211.468 122.733 211.751 118.485 212.175 114.521C211.751 114.379 211.326 114.238 210.901 114.096C187.398 112.822 163.894 113.53 140.391 115.937C136.143 116.362 132.037 117.07 127.931 118.202C122.834 119.618 121.418 123.724 123.967 128.255C125.1 130.379 126.374 132.502 127.365 134.768C130.197 140.997 129.064 145.811 123.826 150.059C121.985 151.475 120.144 152.891 118.303 154.165C117.171 154.873 116.321 155.864 115.897 156.997C115.472 158.129 115.472 159.545 115.897 160.678C117.879 168.89 115.897 173.279 108.251 177.527C106.977 178.235 105.702 178.943 104.428 179.367C97.9149 181.916 91.5436 184.606 85.0306 186.871C65.7748 193.668 46.3777 200.464 25.4229 198.481C23.1575 198.34 20.8918 198.481 18.768 199.331C16.6442 200.039 14.6622 201.172 12.9632 202.729C9.70669 205.561 9.56503 206.835 12.5384 209.95C23.1573 220.994 33.7765 231.896 44.5371 242.656C47.0856 245.063 49.9171 246.904 53.1736 248.036C59.4034 250.16 65.7749 251.435 72.0047 253.275C81.491 256.107 90.9772 258.797 100.18 262.195C114.622 267.434 128.781 273.522 143.364 278.619C155.682 283.008 168 282.442 179.186 274.938C183.433 272.106 187.539 269.133 191.645 265.876C196.742 261.629 201.556 256.815 206.795 252.85C224.069 239.683 243.608 231.471 264.421 226.091C281.977 221.56 298.685 215.33 313.835 205.136C321.339 200.18 330.117 197.207 338.329 193.243C339.603 192.535 341.019 192.252 343.001 191.402L343.285 191.685ZM223.785 51.0904C229.166 51.0904 234.404 48.825 238.227 44.8606C242.05 41.0378 244.174 35.7991 244.174 30.2773C244.174 19.2336 235.679 10.0305 225.343 10.0305C214.441 10.0305 204.954 19.6583 204.954 30.9852C204.954 42.3121 213.166 51.0904 223.785 51.0904Z" fill="#102185"/>
<path d="M199.858 199.33C209.769 192.959 214.3 193.525 221.662 201.737C223.927 200.18 226.476 198.906 229.024 197.773C238.369 194.8 246.864 201.029 247.856 211.365C247.997 213.347 247.856 215.471 247.714 217.453C247.289 220.144 245.59 221.984 242.617 221.843C241.343 221.843 240.21 221.276 239.36 220.427C238.511 219.577 237.944 218.303 237.944 217.17C237.803 215.33 237.803 213.347 237.378 211.507C236.67 207.401 232.848 205.985 230.016 208.958C228.034 211.224 226.335 213.772 225.06 216.604C223.644 219.294 222.087 221.701 218.689 221.135C215.291 220.71 214.158 217.878 214.016 214.622C214.016 212.498 213.45 210.233 212.884 208.25C211.751 204.994 209.061 204.711 207.079 207.401C205.804 209.666 204.672 211.932 203.822 214.339C202.548 217.17 200.991 219.719 197.451 219.294C193.77 218.728 193.061 215.754 192.92 212.639C192.92 211.79 192.92 210.799 192.637 209.949C191.787 208.109 190.655 206.268 189.664 204.569C187.965 205.702 185.699 206.693 184.708 208.25C183.151 210.94 182.018 213.772 181.168 216.745C180.319 219.436 178.62 220.993 175.788 220.71C172.673 220.427 171.541 218.161 171.257 215.33C170.691 207.542 179.328 196.215 186.973 194.516C192.354 193.242 196.176 195.649 199.716 199.472L199.858 199.33Z" fill="#102185"/>
<path d="M268.527 190.411C268.244 196.499 267.96 202.021 267.677 207.543C267.535 210.941 266.12 213.348 262.438 213.489C259.465 213.489 257.624 210.941 257.483 206.976V190.694H251.961C246.581 190.694 243.041 186.446 244.882 181.349C248.988 169.881 253.377 158.554 258.049 147.227C258.474 146.378 259.182 145.528 260.031 145.103C260.881 144.537 261.872 144.254 262.863 144.395C263.854 144.395 264.845 144.679 265.695 145.386C266.544 145.953 267.111 146.802 267.536 147.652C272.066 159.404 276.456 171.297 280.562 183.332C281.836 187.296 279.712 190.128 275.464 190.552C273.199 190.552 270.792 190.694 268.527 190.552V190.411ZM263.005 164.217H262.155C260.173 169.315 258.191 174.412 256.209 179.792H268.668C266.686 174.129 264.845 169.173 263.005 164.217Z" fill="#102185"/>
<path d="M111.225 244.496C107.826 243.364 104.428 242.231 101.313 240.957C98.6233 239.824 96.075 238.125 93.3848 236.992C89.1373 235.152 85.3143 235.435 81.6331 238.833C78.8014 241.523 75.828 241.523 73.8458 239.399C71.8636 237.276 72.1466 234.302 74.6951 231.612C79.9338 226.09 86.3055 224.108 93.668 226.515C97.4908 227.789 101.313 229.488 104.853 231.612C110.092 234.727 114.906 234.302 119.578 230.904C121.844 229.347 123.684 227.506 125.808 225.807C128.357 223.825 131.047 223.259 133.312 225.807C135.578 228.356 134.869 230.904 132.746 233.028C126.799 238.975 120.286 244.072 111.083 244.638L111.225 244.496Z" fill="#102185"/>
<path d="M107.402 223.117C103.437 221.276 99.0481 220.002 95.5085 217.595C89.2787 213.489 85.739 213.206 79.934 217.595C76.6775 220.002 73.7041 220.002 71.7219 217.595C69.8812 215.188 70.589 212.356 73.2791 209.808C80.6416 202.87 91.8271 201.879 99.6144 208.251C105.986 213.489 112.357 213.064 118.729 206.835C120.286 205.277 121.844 203.295 123.826 202.87C124.817 202.729 125.95 202.87 126.941 203.012C127.932 203.295 128.923 203.72 129.772 204.428C130.197 205.277 130.48 206.127 130.622 207.118C130.622 208.109 130.339 208.958 129.914 209.808C123.967 216.321 117.596 222.268 107.826 222.126L107.26 223.117H107.402Z" fill="#102185"/>
<path d="M176.779 141.564C179.469 141.564 182.159 141.706 184.849 142.131C185.415 142.131 185.981 142.414 186.548 142.697C187.114 142.98 187.539 143.405 187.964 143.83C188.388 144.255 188.672 144.821 188.813 145.387C188.955 145.954 189.097 146.662 188.955 147.228C188.955 147.794 188.813 148.502 188.53 149.068C188.247 149.635 187.964 150.201 187.397 150.626C186.973 151.051 186.406 151.334 185.84 151.617C185.274 151.9 184.707 151.9 184 151.9C173.947 152.608 163.752 153.174 153.7 153.599C152.992 153.599 152.426 153.599 151.718 153.458C151.151 153.316 150.444 153.033 150.019 152.608C149.452 152.183 149.169 151.617 148.744 151.051C148.461 150.484 148.319 149.776 148.319 149.21C147.895 146.095 149.452 143.971 152.426 143.688C158.939 142.98 165.452 142.697 171.965 142.272C173.522 142.272 175.079 142.272 176.637 142.131V141.848L176.779 141.564Z" fill="#102185"/>
<path d="M153.984 157.279C157.948 157.562 161.913 157.846 165.877 158.412C168.992 158.837 171.682 160.111 171.54 163.934C171.54 166.766 169.134 168.181 164.886 168.181C158.939 168.181 153.134 167.898 147.188 167.757C144.214 167.757 141.807 166.624 141.382 163.226C140.958 160.394 143.082 157.987 146.48 157.704H153.842V157.279H153.984Z" fill="#102185"/>
<path d="M227.183 19.5169C226.475 20.9327 225.484 22.0654 224.21 23.0565C222.794 23.9061 221.519 25.1803 220.528 26.5962C219.537 28.012 218.829 29.5695 218.546 31.2685C217.838 35.0913 215.431 36.7904 212.458 36.0825C209.485 35.3745 207.927 32.4012 208.635 28.72C209.909 22.3486 213.166 17.2515 219.254 14.4197C223.219 12.4375 227.183 14.4197 227.183 19.3753V19.5169Z" fill="#102185"/>
</svg>

<svg xmlns="http://www.w3.org/2000/svg" width="357" height="292" fill="none" viewBox="0 0 357 292"><path fill="#102185" d="M223.644 104.61c9.486.141 18.973.849 28.176.425 17.981-.85 32.281 6.229 43.608 19.68 2.691 3.54 4.39 7.787 4.956 12.318.708 4.672 2.407 9.062 4.814 13.026 2.548 3.964 5.805 7.363 9.769 9.911 9.487 6.513 19.256 12.743 28.884 19.256 3.115 2.265 6.23 4.672 9.061 7.221 4.956 4.53 4.531 9.061-1.132 12.459-2.407 1.416-4.956 2.69-7.646 3.54-9.628 3.115-18.831 6.938-27.043 12.884-14.017 10.194-30.016 15.575-46.44 19.964-15.858 4.247-31.149 9.344-45.45 17.84-9.911 5.805-18.547 13.309-27.043 21.096-9.203 8.495-19.68 15.008-32.281 16.99-9.203 1.274-18.548.283-27.327-3.115-13.167-4.814-26.193-9.769-39.078-15.291-11.185-4.672-22.653-8.07-34.547-10.477-6.088-1.416-12.176-3.257-17.981-5.522q-3.398-1.062-5.947-3.398c-7.928-7.363-15.716-14.867-23.22-22.512-4.39-4.39-8.212-9.203-12.46-13.593-7.362-7.645-7.079-15.008.85-21.945 4.956-4.39 10.76-7.505 17.557-6.797 20.53 1.841 39.36-4.53 58.192-11.185 7.08-2.548 13.875-5.38 20.813-8.212 3.256-1.274 4.531-3.398 3.256-6.938-2.548-7.22.992-11.893 6.372-16.14 6.938-5.381 6.796-5.522 2.549-13.026-5.664-10.053-1.133-21.805 10.194-24.636 6.796-1.699 13.875-2.832 20.955-3.115 21.521-.708 43.183-.991 64.705-1.416 1.84 0 2.69-.283 2.973-2.407 1.133-12.743 2.265-25.627 3.54-38.37.283-2.407-1.133-2.69-2.691-3.256-12.884-4.814-20.247-16.141-19.539-30.016.567-13.451 9.628-25.344 22.371-28.742 11.752-2.974 22.088 0 29.875 9.203 8.354 9.91 9.345 21.238 4.248 32.848-1.841 4.389-4.673 8.212-8.213 11.327a31.9 31.9 0 0 1-12.601 6.23c-2.69.707-3.256 1.698-3.539 4.389-.991 12.176-2.266 24.21-3.54 36.387v3.398zm119.641 87.075c-1.558-1.274-2.407-2.123-3.399-2.831l-29.733-19.964c-10.76-7.221-17.698-16.849-19.68-30.016-.283-2.832-1.275-5.522-2.974-7.787-5.38-6.372-11.468-12.46-19.822-13.734-9.911-1.558-19.822-1.699-29.874-2.266-4.956-.283-9.912 0-15.15 0-.283 1.699-.567 3.115-.708 4.673l-1.699 19.114c-.425 4.247-2.69 6.513-5.947 6.088-3.256-.425-4.672-3.257-4.247-7.363.424-3.539.708-7.079 1.132-10.76.284-4.106.567-8.354.991-12.318l-1.274-.425c-23.503-1.274-47.007-.566-70.51 1.841-4.248.425-8.354 1.133-12.46 2.265-5.097 1.416-6.513 5.522-3.964 10.053 1.133 2.124 2.407 4.247 3.398 6.513 2.832 6.229 1.699 11.043-3.539 15.291-1.841 1.416-3.682 2.832-5.523 4.106-1.132.708-1.982 1.699-2.406 2.832s-.425 2.548 0 3.681c1.982 8.212 0 12.601-7.646 16.849-1.274.708-2.549 1.416-3.823 1.84-6.513 2.549-12.884 5.239-19.397 7.504-19.256 6.797-38.653 13.593-59.608 11.61-2.265-.141-4.531 0-6.655.85a16.1 16.1 0 0 0-5.805 3.398c-3.256 2.832-3.398 4.106-.425 7.221 10.62 11.044 21.239 21.946 32 32.706 2.548 2.407 5.38 4.248 8.636 5.38 6.23 2.124 12.6 3.399 18.83 5.239 9.487 2.832 18.973 5.522 28.176 8.92 14.442 5.239 28.601 11.327 43.184 16.424 12.318 4.389 24.636 3.823 35.822-3.681a186 186 0 0 0 12.459-9.062c5.097-4.247 9.911-9.061 15.15-13.026 17.274-13.167 36.813-21.379 57.626-26.759 17.556-4.531 34.264-10.761 49.414-20.955 7.504-4.956 16.282-7.929 24.494-11.893 1.274-.708 2.69-.991 4.672-1.841zM223.785 51.09c5.381 0 10.619-2.265 14.442-6.23 3.823-3.822 5.947-9.06 5.947-14.583 0-11.043-8.495-20.246-18.831-20.246-10.902 0-20.389 9.627-20.389 20.954s8.212 20.105 18.831 20.105"/><path fill="#102185" d="M199.858 199.33c9.911-6.371 14.442-5.805 21.804 2.407 2.265-1.557 4.814-2.831 7.362-3.964 9.345-2.973 17.84 3.256 18.832 13.592.141 1.982 0 4.106-.142 6.088-.425 2.691-2.124 4.531-5.097 4.39-1.274 0-2.407-.567-3.257-1.416-.849-.85-1.416-2.124-1.416-3.257-.141-1.84-.141-3.823-.566-5.663-.708-4.106-4.53-5.522-7.362-2.549-1.982 2.266-3.681 4.814-4.956 7.646-1.416 2.69-2.973 5.097-6.371 4.531-3.398-.425-4.531-3.257-4.673-6.513 0-2.124-.566-4.389-1.132-6.372-1.133-3.256-3.823-3.539-5.805-.849-1.275 2.265-2.407 4.531-3.257 6.938-1.274 2.831-2.831 5.38-6.371 4.955-3.681-.566-4.39-3.54-4.531-6.655 0-.849 0-1.84-.283-2.69-.85-1.84-1.982-3.681-2.973-5.38-1.699 1.133-3.965 2.124-4.956 3.681-1.557 2.69-2.69 5.522-3.54 8.495-.849 2.691-2.548 4.248-5.38 3.965-3.115-.283-4.247-2.549-4.531-5.38-.566-7.788 8.071-19.115 15.716-20.814 5.381-1.274 9.203 1.133 12.743 4.956zM268.527 190.411c-.283 6.088-.567 11.61-.85 17.132-.142 3.398-1.557 5.805-5.239 5.946-2.973 0-4.814-2.548-4.955-6.513v-16.282h-5.522c-5.38 0-8.92-4.248-7.079-9.345 4.106-11.468 8.495-22.795 13.167-34.122.425-.849 1.133-1.699 1.982-2.124.85-.566 1.841-.849 2.832-.708.991 0 1.982.284 2.832.991.849.567 1.416 1.416 1.841 2.266 4.53 11.752 8.92 23.645 13.026 35.68 1.274 3.964-.85 6.796-5.098 7.22-2.265 0-4.672.142-6.937 0zm-5.522-26.194h-.85c-1.982 5.098-3.964 10.195-5.946 15.575h12.459c-1.982-5.663-3.823-10.619-5.663-15.575M111.225 244.496c-3.399-1.132-6.797-2.265-9.912-3.539-2.69-1.133-5.238-2.832-7.928-3.965-4.248-1.84-8.07-1.557-11.752 1.841-2.832 2.69-5.805 2.69-7.787.566s-1.7-5.097.85-7.787c5.238-5.522 11.61-7.504 18.972-5.097 3.823 1.274 7.645 2.973 11.185 5.097 5.239 3.115 10.053 2.69 14.725-.708 2.266-1.557 4.106-3.398 6.23-5.097 2.549-1.982 5.239-2.548 7.504 0 2.266 2.549 1.557 5.097-.566 7.221-5.947 5.947-12.46 11.044-21.663 11.61zM107.402 223.117c-3.965-1.841-8.354-3.115-11.894-5.522-6.23-4.106-9.769-4.389-15.574 0-3.257 2.407-6.23 2.407-8.212 0-1.84-2.407-1.133-5.239 1.557-7.787 7.363-6.938 18.548-7.929 26.335-1.557 6.372 5.238 12.743 4.813 19.115-1.416 1.557-1.558 3.115-3.54 5.097-3.965.991-.141 2.124 0 3.115.142.991.283 1.982.708 2.831 1.416.425.849.708 1.699.85 2.69 0 .991-.283 1.84-.708 2.69-5.947 6.513-12.318 12.46-22.088 12.318l-.566.991zM176.779 141.564c2.69 0 5.38.142 8.07.567.566 0 1.132.283 1.699.566.566.283.991.708 1.416 1.133s.708.991.849 1.557c.142.567.284 1.275.142 1.841a4.4 4.4 0 0 1-.425 1.84c-.283.567-.566 1.133-1.133 1.558-.424.425-.991.708-1.557.991s-1.133.283-1.84.283a1087 1087 0 0 1-30.3 1.699c-.708 0-1.274 0-1.982-.141-.567-.142-1.274-.425-1.699-.85-.567-.425-.85-.991-1.275-1.557a4.4 4.4 0 0 1-.425-1.841c-.424-3.115 1.133-5.239 4.107-5.522 6.513-.708 13.026-.991 19.539-1.416 1.557 0 3.114 0 4.672-.141v-.283zM153.984 157.279c3.964.283 7.929.567 11.893 1.133 3.115.425 5.805 1.699 5.663 5.522 0 2.832-2.406 4.247-6.654 4.247-5.947 0-11.752-.283-17.698-.424-2.974 0-5.381-1.133-5.806-4.531-.424-2.832 1.7-5.239 5.098-5.522h7.362v-.425zM227.183 19.517c-.708 1.416-1.699 2.548-2.973 3.54-1.416.85-2.691 2.123-3.682 3.54-.991 1.415-1.699 2.973-1.982 4.671-.708 3.823-3.115 5.522-6.088 4.815-2.973-.709-4.531-3.682-3.823-7.363 1.274-6.371 4.531-11.468 10.619-14.3 3.965-1.982 7.929 0 7.929 4.955z"/></svg>
